gama.ui.shared/icons_svg/dark/gaml/_gui.svg

<svg height="18" viewBox="-309.587 -2833.086 24 18" width="24" xmlns="http://www.w3.org/2000/svg"><path d="m-308.80727-2829.8024v11.4324c0 .2806.22617.5068.50689.5068.10138 0 .20276-.0312.28074-.0858l8.31298-5.6382c.27294-.1871.34312-.5614.15596-.8344-.039-.0624-.09358-.117-.15596-.156l-8.31298-5.6459c-.23396-.156-.54588-.0935-.70186.1325-.05457.086-.08577.1794-.08577.2808zm-.77983 0c0-.2573.078-.5069.21836-.7252.40551-.5849 1.20094-.7409 1.7936-.3432l8.31298 5.6382c.14816.1014.27294.2261.36652.3666.42891.6316.26514 1.4894-.36652 1.9183l-8.31298 5.6382c-.21056.1481-.46789.2183-.72524.2183-.70964 0-1.28672-.5771-1.28672-1.2868z" fill="#999"/></svg>

<?xml version="1.0" encoding="UTF-8" standalone="no"?>
<!DOCTYPE svg PUBLIC "-//W3C//DTD SVG 1.1//EN" "http://www.w3.org/Graphics/SVG/1.1/DTD/svg11.dtd">
<svg xmlns:dc="http://purl.org/dc/elements/1.1/" xmlns:xl="http://www.w3.org/1999/xlink" version="1.1" xmlns="http://www.w3.org/2000/svg" viewBox="-309.5871 -2833.0862 24 18" width="24" height="18">
  <defs/>
  <g id="SOURCES" stroke-dasharray="none" stroke="none" stroke-opacity="1" fill="none" fill-opacity="1">
    <title>SOURCES</title>
    <g id="SOURCES_New">
      <title>New</title>
      <g id="Group_10502">
        <g id="Graphic_10153"/>
        <g id="Group_10058">
          <title>play</title>
          <g id="Graphic_10059">
            <path d="M -308.80727 -2829.8024 L -308.80727 -2818.37 C -308.80727 -2818.0894 -308.5811 -2817.8632 -308.30038 -2817.8632 C -308.199 -2817.8632 -308.09762 -2817.8944 -308.01964 -2817.949 L -299.70666 -2823.5872 C -299.43372 -2823.7743 -299.36354 -2824.1486 -299.5507 -2824.4216 C -299.5897 -2824.484 -299.64428 -2824.5386 -299.70666 -2824.5776 L -308.01964 -2830.2235 C -308.2536 -2830.3795 -308.56552 -2830.317 -308.7215 -2830.091 C -308.77607 -2830.005 -308.80727 -2829.9116 -308.80727 -2829.8102 Z M -309.5871 -2829.8024 C -309.5871 -2830.0597 -309.5091 -2830.3093 -309.36874 -2830.5276 C -308.96323 -2831.1125 -308.1678 -2831.2685 -307.57514 -2830.8708 L -299.26216 -2825.2326 C -299.114 -2825.1312 -298.98922 -2825.0065 -298.89564 -2824.866 C -298.46673 -2824.2344 -298.6305 -2823.3766 -299.26216 -2822.9477 L -307.57514 -2817.3095 C -307.7857 -2817.1614 -308.04303 -2817.0912 -308.30038 -2817.0912 C -309.01002 -2817.0912 -309.5871 -2817.6683 -309.5871 -2818.378 Z" fill="#999"/>
          </g>
        </g>
      </g>
    </g>
  </g>
</svg>
